X: 1
T: The Kerry
R: polka
M: 2/4
L: 1/8
K: Dmaj
|:fA BA|fA BA|d2 e>f|ed BA|fA BA| fA BA|d2 e>f| ed d2:||:fa f>e| ed BA|d2 e>f| ed BA|fa f>e| ed BA|d2 e>f |ed d2:|


Tune 39	Setting 25367

